X: 4
T: McIntyre's Fancy
R: jig
M: 6/8
L: 1/8
K: Ador
|:~c2e AGE|GAB ABA|eag edc|eAB AGE|
cde dcA|~G2G GBd|gea ged|[1cAG A2B:|[2cAG Ace||
|:~a2a ged|edg edc|ABA GAc|dec deg|
aeg dec|ABA GEG|cde ged|[1cAG AcA:|[2cAG A2B||


Tune 819	Setting 13970

